; generated by PrusaSlicer 2.6.1-rc2+linux-x64-GTK3 on 2023-09-12 at 21:31:25 UTC

; 

; external perimeters extrusion width = 0.40mm
; perimeters extrusion width = 0.46mm
; infill extrusion width = 0.46mm
; solid infill extrusion width = 0.56mm
; top infill extrusion width = 0.40mm
; first layer extrusion width = 0.50mm

;TYPE:Custom
G90 ; use absolute coordinates
M83 ; extruder relative mode
M140 S65 ; set final bed temp
M104 S225 ; set final nozzle temp

G28
M132 X Y Z A B
G1 Z50.000 F420
G161 X Y F3300
M7 T0
M6 T0
M651 S255

M190 S65 ; wait for bed temp to stabilize
M109 S225 ; wait for nozzle temp to stabilize

G92 E0
G21 ; set units to millimeters
G90 ; use absolute coordinates
M82 ; use absolute distances for extrusion
G92 E0
; Filament gcode
M107
;LAYER_CHANGE
;Z:0.25
;HEIGHT:0.25
G1 Z.25 F12000
G1 E-5 F1500
G92 E0
M204 S4800
G1 X-12.732 Y0 F12000
G1 E5 F1500
M204 S500
;TYPE:Skirt/Brim
;WIDTH:0.5
G1 F1200
G1 X-12.732 Y-7.5 E5.34794
G1 X-12.336 Y-9.497 E5.44239
G1 X-11.207 Y-11.192 E5.53687
G1 X-9.517 Y-12.327 E5.63131
G1 X-7.5 Y-12.732 E5.72675
G1 X7.5 Y-12.732 E6.42264
G1 X9.497 Y-12.336 E6.51709
G1 X11.192 Y-11.207 E6.61157
G1 X12.327 Y-9.517 E6.70601
G1 X12.732 Y-7.5 E6.80145
G1 X12.732 Y7.5 E7.49734
G1 X12.336 Y9.497 E7.59179
G1 X11.207 Y11.192 E7.68627
G1 X9.517 Y12.327 E7.78071
G1 X7.5 Y12.732 E7.87615
G1 X-7.5 Y12.732 E8.57204
G1 X-9.497 Y12.336 E8.66649
G1 X-11.192 Y11.207 E8.76097
G1 X-12.327 Y9.517 E8.85541
G1 X-12.732 Y7.5 E8.95085
G1 X-12.732 Y.06 E9.29601
M204 S4000
M204 S4800
G1 X-12.285 Y.06 F12000
M204 S500
G1 F1200
G1 X-12.285 Y-7.5 E9.64674
G1 X-11.89 Y-9.406 E9.73704
G1 X-10.768 Y-10.996 E9.82732
G1 X-9.105 Y-12.008 E9.91763
G1 X-7.5 Y-12.285 E9.99319
G1 X7.5 Y-12.285 E10.68908
G1 X9.406 Y-11.89 E10.77938
G1 X10.996 Y-10.768 E10.86966
G1 X12.008 Y-9.105 E10.95997
G1 X12.285 Y-7.5 E11.03553
G1 X12.285 Y7.5 E11.73142
G1 X11.89 Y9.406 E11.82172
G1 X10.768 Y10.996 E11.912
G1 X9.105 Y12.008 E12.00231
G1 X7.5 Y12.285 E12.07787
G1 X-7.5 Y12.285 E12.77376
G1 X-9.406 Y11.89 E12.86406
G1 X-10.996 Y10.768 E12.95434
G1 X-12.008 Y9.105 E13.04465
G1 X-12.285 Y7.5 E13.12021
G1 X-12.285 Y.12 E13.46259
M204 S4000
M204 S4800
G1 X-11.839 Y.12 F12000
M204 S500
G1 F1200
G1 X-11.839 Y-7.5 E13.8161
G1 X-11.444 Y-9.31 E13.90205
G1 X-10.33 Y-10.79 E13.98799
G1 X-8.7 Y-11.67 E14.07393
G1 X-7.5 Y-11.839 E14.13015
G1 X7.5 Y-11.839 E14.82604
G1 X9.31 Y-11.444 E14.91199
G1 X10.79 Y-10.33 E14.99793
G1 X11.67 Y-8.7 E15.08387
G1 X11.839 Y-7.5 E15.14009
G1 X11.839 Y7.5 E15.83598
G1 X11.444 Y9.31 E15.92193
G1 X10.33 Y10.79 E16.00787
G1 X8.7 Y11.67 E16.09381
G1 X7.5 Y11.839 E16.15003
G1 X-7.5 Y11.839 E16.84592
G1 X-9.31 Y11.444 E16.93187
G1 X-10.79 Y10.33 E17.01781
G1 X-11.67 Y8.7 E17.10375
G1 X-11.839 Y7.5 E17.15997
G1 X-11.839 Y.18 E17.49956
M204 S4000
M204 S4800
G1 X-11.393 Y.18 F12000
M204 S500
G1 F1200
G1 X-11.393 Y-7.5 E17.85586
G1 X-10.998 Y-9.208 E17.93719
G1 X-9.893 Y-10.57 E18.01856
G1 X-7.5 Y-11.393 E18.13596
G1 X7.5 Y-11.393 E18.83185
G1 X9.208 Y-10.998 E18.91318
G1 X10.57 Y-9.893 E18.99455
G1 X11.393 Y-7.5 E19.11195
G1 X11.393 Y7.5 E19.80784
G1 X10.998 Y9.208 E19.88917
G1 X9.893 Y10.57 E19.97054
G1 X7.5 Y11.393 E20.08794
G1 X-7.5 Y11.393 E20.78383
G1 X-9.208 Y10.998 E20.86516
G1 X-10.57 Y9.893 E20.94653
G1 X-11.393 Y7.5 E21.06393
G1 X-11.393 Y.24 E21.40074
M204 S4000
M204 S4800
G1 X-10.946 Y.24 F12000
M204 S500
G1 F1200
G1 X-10.946 Y-7.5 E21.75982
G1 X-10.552 Y-9.101 E21.83631
G1 X-9.46 Y-10.335 E21.91276
G1 X-7.5 Y-10.946 E22.00801
G1 X7.5 Y-10.946 E22.7039
G1 X9.101 Y-10.552 E22.78039
G1 X10.335 Y-9.46 E22.85684
G1 X10.946 Y-7.5 E22.95209
G1 X10.946 Y7.5 E23.64798
G1 X10.552 Y9.101 E23.72447
G1 X9.46 Y10.335 E23.80092
G1 X7.5 Y10.946 E23.89617
G1 X-7.5 Y10.946 E24.59206
G1 X-9.101 Y10.552 E24.66855
G1 X-10.335 Y9.46 E24.745
G1 X-10.946 Y7.5 E24.84025
G1 X-10.946 Y.3 E25.17428
M204 S4000
; printing object Shape-Box id:0 copy 0
G1 E20.17428 F1500
G92 E0
M204 S4800
G1 X6.257 Y6.257 F12000
G1 E5 F1500
M204 S500
;TYPE:Perimeter
;WIDTH:0.499999
G1 F1200
G1 X-6.257 Y6.257 E5.58056
G1 X-6.257 Y-6.257 E6.16112
G1 X6.257 Y-6.257 E6.74168
G1 X6.257 Y6.197 E7.31945
M204 S4000
M204 S4800
G1 X6.704 Y6.704 F12000
M204 S500
G1 F1200
G1 X-6.704 Y6.704 E7.94148
G1 X-6.704 Y-6.704 E8.56351
G1 X6.704 Y-6.704 E9.18554
G1 X6.704 Y6.644 E9.80479
M204 S4000
M204 S4800
G1 X7.15 Y7.15 F12000
M204 S500
;TYPE:External perimeter
G1 F1200
G1 X-7.15 Y7.15 E10.4682
G1 X-7.15 Y-7.15 E11.13161
G1 X7.15 Y-7.15 E11.79502
G1 X7.15 Y7.09 E12.45565
M204 S4000
G1 X6.764 Y7.046 F12000
G1 E7.45565 F1500
G92 E0
M204 S4800
G1 X6.123 Y-5.198 F12000
G1 E5 F1500
M204 S500
;TYPE:Solid infill
;WIDTH:0.511089
G1 F1200
G1 X5.198 Y-6.123 E5.0622
M204 S4000
M204 S4800
G1 X4.551 Y-6.123 F12000
M204 S500
G1 F1200
G1 X6.123 Y-4.551 E5.1679
M204 S4000
M204 S4800
G1 X6.123 Y-3.904 F12000
M204 S500
G1 F1200
G1 X3.904 Y-6.123 E5.3171
M204 S4000
M204 S4800
G1 X3.257 Y-6.123 F12000
M204 S500
G1 F1200
G1 X6.123 Y-3.257 E5.50981
M204 S4000
M204 S4800
G1 X6.123 Y-2.61 F12000
M204 S500
G1 F1200
G1 X2.61 Y-6.123 E5.74602
M204 S4000
M204 S4800
G1 X1.963 Y-6.123 F12000
M204 S500
G1 F1200
G1 X6.123 Y-1.963 E6.02573
M204 S4000
M204 S4800
G1 X6.123 Y-1.316 F12000
M204 S500
G1 F1200
G1 X1.316 Y-6.123 E6.34895
M204 S4000
M204 S4800
G1 X.669 Y-6.123 F12000
M204 S500
G1 F1200
G1 X6.123 Y-.669 E6.71567
M204 S4000
M204 S4800
G1 X6.123 Y-.022 F12000
M204 S500
G1 F1200
G1 X.022 Y-6.123 E7.1259
M204 S4000
M204 S4800
G1 X-.625 Y-6.123 F12000
M204 S500
G1 F1200
G1 X6.123 Y.625 E7.57963
M204 S4000
M204 S4800
G1 X6.123 Y1.272 F12000
M204 S500
G1 F1200
G1 X-1.272 Y-6.123 E8.07686
M204 S4000
M204 S4800
G1 X-1.918 Y-6.123 F12000
M204 S500
G1 F1200
G1 X6.123 Y1.918 E8.61753
M204 S4000
M204 S4800
G1 X6.123 Y2.565 F12000
M204 S500
G1 F1200
G1 X-2.565 Y-6.123 E9.2017
M204 S4000
M204 S4800
G1 X-3.212 Y-6.123 F12000
M204 S500
G1 F1200
G1 X6.123 Y3.212 E9.82938
M204 S4000
M204 S4800
G1 X6.123 Y3.859 F12000
M204 S500
G1 F1200
G1 X-3.859 Y-6.123 E10.50056
M204 S4000
M204 S4800
G1 X-4.506 Y-6.123 F12000
M204 S500
G1 F1200
G1 X6.123 Y4.506 E11.21524
M204 S4000
M204 S4800
G1 X6.123 Y5.153 F12000
M204 S500
G1 F1200
G1 X-5.153 Y-6.123 E11.97343
M204 S4000
M204 S4800
G1 X-5.8 Y-6.123 F12000
M204 S500
G1 F1200
G1 X6.123 Y5.8 E12.77512
M204 S4000
M204 S4800
G1 X5.8 Y6.123 F12000
M204 S500
G1 F1200
G1 X-6.123 Y-5.8 E13.57681
M204 S4000
M204 S4800
G1 X-6.123 Y-5.153 F12000
M204 S500
G1 F1200
G1 X5.153 Y6.123 E14.335
M204 S4000
M204 S4800
G1 X4.506 Y6.123 F12000
M204 S500
G1 F1200
G1 X-6.123 Y-4.506 E15.04968
M204 S4000
M204 S4800
G1 X-6.123 Y-3.859 F12000
M204 S500
G1 F1200
G1 X3.859 Y6.123 E15.72086
M204 S4000
M204 S4800
G1 X3.212 Y6.123 F12000
M204 S500
G1 F1200
G1 X-6.123 Y-3.212 E16.34854
M204 S4000
M204 S4800
G1 X-6.123 Y-2.565 F12000
M204 S500
G1 F1200
G1 X2.565 Y6.123 E16.93271
M204 S4000
M204 S4800
G1 X1.918 Y6.123 F12000
M204 S500
G1 F1200
G1 X-6.123 Y-1.918 E17.47338
M204 S4000
M204 S4800
G1 X-6.123 Y-1.271 F12000
M204 S500
G1 F1200
G1 X1.271 Y6.123 E17.97055
M204 S4000
M204 S4800
G1 X.625 Y6.123 F12000
M204 S500
G1 F1200
G1 X-6.123 Y-.625 E18.42428
M204 S4000
M204 S4800
G1 X-6.123 Y.022 F12000
M204 S500
G1 F1200
G1 X-.022 Y6.123 E18.83451
M204 S4000
M204 S4800
G1 X-.669 Y6.123 F12000
M204 S500
G1 F1200
G1 X-6.123 Y.669 E19.20123
M204 S4000
M204 S4800
G1 X-6.123 Y1.316 F12000
M204 S500
G1 F1200
G1 X-1.316 Y6.123 E19.52445
M204 S4000
M204 S4800
G1 X-1.963 Y6.123 F12000
M204 S500
G1 F1200
G1 X-6.123 Y1.963 E19.80416
M204 S4000
M204 S4800
G1 X-6.123 Y2.61 F12000
M204 S500
G1 F1200
G1 X-2.61 Y6.123 E20.04037
M204 S4000
M204 S4800
G1 X-3.257 Y6.123 F12000
M204 S500
G1 F1200
G1 X-6.123 Y3.257 E20.23308
M204 S4000
M204 S4800
G1 X-6.123 Y3.904 F12000
M204 S500
G1 F1200
G1 X-3.904 Y6.123 E20.38228
M204 S4000
M204 S4800
G1 X-4.551 Y6.123 F12000
M204 S500
G1 F1200
G1 X-6.123 Y4.551 E20.48798
M204 S4000
M204 S4800
G1 X-6.123 Y5.198 F12000
M204 S500
G1 F1200
G1 X-5.198 Y6.123 E20.55018
M204 S4000
; stop printing object Shape-Box id:0 copy 0
M106 S84.15
;LAYER_CHANGE
;Z:0.45
;HEIGHT:0.2
G1 Z.45 F12000
M104 S205 ; set temperature
M140 S55 ; set bed temperature
; printing object Shape-Box id:0 copy 0
M204 S4800
G1 X6.496 Y6.496
M204 S2000
;TYPE:Perimeter
;WIDTH:0.459999
G1 F9000
G1 X-6.496 Y6.496 E21.00075
G1 X-6.496 Y-6.496 E21.45132
G1 X6.496 Y-6.496 E21.90189
G1 X6.496 Y6.436 E22.35038
M204 S4000
M204 S4800
G1 X6.913 Y6.913 F12000
M204 S2000
G1 F9000
G1 X-6.913 Y6.913 E22.82987
G1 X-6.913 Y-6.913 E23.30936
G1 X6.913 Y-6.913 E23.78885
G1 X6.913 Y6.853 E24.26626
M204 S4000
M204 S4800
G1 X7.3 Y7.3 F12000
M204 S1000
;TYPE:External perimeter
;WIDTH:0.399999
G1 F4800
G1 X-7.3 Y7.3 E24.69975
G1 X-7.3 Y-7.3 E25.13324
G1 X7.3 Y-7.3 E25.56673
G1 X7.3 Y7.24 E25.99844
M204 S4000
G1 X6.914 Y7.196 F12000
M204 S4800
G1 X-5.683 Y-6.231
M204 S4000
;TYPE:Solid infill
;WIDTH:0.364188
G1 X-6.231 Y-6.231 E26.01308
G1 X-6.231 Y-5.683 E26.02772
G1 X-5.865 Y-6.048 E26.04153
;WIDTH:0.559999
G1 F8702.733
G1 X-6.133 Y-5.188 E26.08026
G1 X-5.188 Y-6.133 E26.13772
G1 X-5.13 Y-6.181 E26.14096
;WIDTH:0.51573
G1 F9517.58
G1 X-5.073 Y-6.228 E26.14386
;WIDTH:0.47146
G1 F10500.782
G1 X-5.016 Y-6.276 E26.14652
;WIDTH:0.42719
G1 F11710.523
G1 X-4.959 Y-6.324 E26.1489
;WIDTH:0.38292
G1 F12000
G1 X-5 Y-6.313 E26.1501
G1 X-5.019 Y-6.384 E26.15218
G1 X-4.948 Y-6.365 E26.15426
;WIDTH:0.559999
G1 F8702.733
G1 X-4.456 Y-6.133 E26.17765
G1 X-6.133 Y-4.456 E26.27962
G1 X-6.133 Y-3.725 E26.31105
G1 X-3.725 Y-6.133 E26.45747
G1 X-2.994 Y-6.133 E26.4889
G1 X-6.133 Y-2.994 E26.67977
G1 X-6.133 Y-2.263 E26.7112
G1 X-2.263 Y-6.133 E26.94651
G1 X-1.531 Y-6.133 E26.97798
G1 X-6.133 Y-1.531 E27.2578
G1 X-6.133 Y-.8 E27.28923
G1 X-.8 Y-6.133 E27.6135
G1 X-.069 Y-6.133 E27.64493
G1 X-6.133 Y-.069 E28.01365
G1 X-6.133 Y.662 E28.04508
G1 X.662 Y-6.133 E28.45825
G1 X1.394 Y-6.133 E28.48972
G1 X-6.133 Y1.394 E28.9474
G1 X-6.133 Y2.125 E28.97883
G1 X2.125 Y-6.133 E29.48095
G1 X2.856 Y-6.133 E29.51238
G1 X-6.133 Y2.856 E30.05895
G1 X-6.133 Y3.588 E30.09042
G1 X3.588 Y-6.133 E30.6815
G1 X4.319 Y-6.133 E30.71293
G1 X-6.133 Y4.319 E31.34846
G1 X-6.133 Y5.05 E31.37989
G1 X5.05 Y-6.133 E32.05987
G1 X5.781 Y-6.133 E32.0913
G1 X-6.133 Y5.781 E32.81573
G1 X-6.15 Y5.893 E32.8206
;WIDTH:0.51573
G1 F9517.58
G1 X-6.166 Y6.005 E32.82505
;WIDTH:0.47146
G1 F10500.782
G1 X-6.183 Y6.117 E32.82909
;WIDTH:0.42719
G1 F11710.523
G1 X-6.199 Y6.229 E32.8327
;WIDTH:0.38292
G1 F12000
G1 X-6.27 Y6.21 E32.83478
G1 X-6.251 Y6.281 E32.83686
G1 X-6.21 Y6.27 E32.83806
;WIDTH:0.559999
G1 F8702.733
G1 X-5.754 Y6.133 E32.85853
G1 X6.133 Y-5.753 E33.58128
G1 X6.133 Y-5.022 E33.61271
G1 X-5.022 Y6.133 E34.29098
G1 X-4.291 Y6.133 E34.32241
G1 X6.133 Y-4.291 E34.95624
G1 X6.133 Y-3.56 E34.98767
G1 X-3.56 Y6.133 E35.57705
G1 X-2.828 Y6.133 E35.60852
G1 X6.133 Y-2.828 E36.15339
G1 X6.133 Y-2.097 E36.18482
G1 X-2.097 Y6.133 E36.68524
G1 X-1.366 Y6.133 E36.71667
G1 X6.133 Y-1.366 E37.17264
G1 X6.133 Y-.635 E37.20407
G1 X-.635 Y6.133 E37.6156
G1 X.097 Y6.133 E37.64707
G1 X6.133 Y.097 E38.01409
G1 X6.133 Y.828 E38.04552
G1 X.828 Y6.133 E38.36809
G1 X1.559 Y6.133 E38.39952
G1 X6.133 Y1.559 E38.67764
G1 X6.133 Y2.29 E38.70907
G1 X2.29 Y6.133 E38.94274
G1 X3.022 Y6.133 E38.97421
G1 X6.133 Y3.022 E39.16337
G1 X6.133 Y3.753 E39.1948
G1 X3.753 Y6.133 E39.33951
G1 X4.484 Y6.133 E39.37094
G1 X6.133 Y4.484 E39.47121
G1 X6.133 Y5.215 E39.50264
G1 X5.215 Y6.133 E39.55846
G1 X5.176 Y6.185 E39.56125
;WIDTH:0.51573
G1 F9517.58
G1 X5.137 Y6.238 E39.56384
;WIDTH:0.47146
G1 F10500.782
G1 X5.097 Y6.29 E39.56618
;WIDTH:0.42719
G1 F11710.523
G1 X5.058 Y6.343 E39.56828
;WIDTH:0.38292
G1 F12000
G1 X4.987 Y6.324 E39.57036
G1 X5.006 Y6.395 E39.57244
G1 X5.047 Y6.384 E39.57364
M204 S4800
G1 X6.134 Y6.134
M204 S4000
;WIDTH:0.669164
G1 F7185.697
G1 X6.058 Y6.154 E39.57773
G1 X6.003 Y6.099 E39.58178
G1 X6.023 Y6.023 E39.58587
G1 X6.099 Y6.003 E39.58996
G1 X6.154 Y6.058 E39.59401
; stop printing object Shape-Box id:0 copy 0
M106 S170.85
;LAYER_CHANGE
;Z:0.65
;HEIGHT:0.2
G1 Z.65 F12000
; printing object Shape-Box id:0 copy 0
M204 S4800
G1 X6.496 Y6.496
M204 S2000
;TYPE:Perimeter
;WIDTH:0.459999
G1 F9000
G1 X-6.496 Y6.496 E40.04458
G1 X-6.496 Y-6.496 E40.49515
G1 X6.496 Y-6.496 E40.94572
G1 X6.496 Y6.436 E41.39421
M204 S4000
M204 S4800
G1 X6.913 Y6.913 F12000
M204 S2000
G1 F9000
G1 X-6.913 Y6.913 E41.8737
G1 X-6.913 Y-6.913 E42.35319
G1 X6.913 Y-6.913 E42.83268
G1 X6.913 Y6.853 E43.31009
M204 S4000
M204 S4800
G1 X7.3 Y7.3 F12000
M204 S1000
;TYPE:External perimeter
;WIDTH:0.399999
G1 F4800
G1 X-7.3 Y7.3 E43.74358
G1 X-7.3 Y-7.3 E44.17707
G1 X7.3 Y-7.3 E44.61056
G1 X7.3 Y7.24 E45.04227
M204 S4000
G1 X6.914 Y7.196 F12000
M204 S4800
G1 X-6.231 Y5.683
M204 S4000
;TYPE:Solid infill
;WIDTH:0.364188
G1 X-6.231 Y6.231 E45.05691
G1 X-5.683 Y6.231 E45.07155
G1 X-6.048 Y5.865 E45.08536
;WIDTH:0.559999
G1 F8702.733
G1 X-6.133 Y5.188 E45.1147
G1 X-5.188 Y6.133 E45.17216
G1 X-4.456 Y6.133 E45.20363
G1 X-6.133 Y4.456 E45.3056
G1 X-6.133 Y3.725 E45.33703
G1 X-3.725 Y6.133 E45.48345
G1 X-2.994 Y6.133 E45.51488
G1 X-6.133 Y2.994 E45.70575
G1 X-6.133 Y2.263 E45.73718
G1 X-2.263 Y6.133 E45.97249
G1 X-1.531 Y6.133 E46.00396
G1 X-6.133 Y1.531 E46.28378
G1 X-6.133 Y.8 E46.31521
G1 X-.8 Y6.133 E46.63948
G1 X-.069 Y6.133 E46.67091
G1 X-6.133 Y.069 E47.03963
G1 X-6.133 Y-.662 E47.07106
G1 X.662 Y6.133 E47.48423
G1 X1.394 Y6.133 E47.5157
G1 X-6.133 Y-1.394 E47.97338
G1 X-6.133 Y-2.125 E48.00481
G1 X2.125 Y6.133 E48.50693
G1 X2.856 Y6.133 E48.53836
G1 X-6.133 Y-2.856 E49.08493
G1 X-6.133 Y-3.588 E49.1164
G1 X3.588 Y6.133 E49.70748
G1 X4.319 Y6.133 E49.73891
G1 X-6.133 Y-4.319 E50.37444
G1 X-6.133 Y-5.05 E50.40587
G1 X5.05 Y6.133 E51.08585
M204 S4800
G1 X6.27 Y6.21 F12000
M204 S4000
;WIDTH:0.38292
G1 X6.281 Y6.251 E51.08705
G1 X6.21 Y6.27 E51.08913
G1 X6.229 Y6.199 E51.09121
;WIDTH:0.42719
G1 F11710.523
G1 X6.117 Y6.183 E51.09482
;WIDTH:0.47146
G1 F10500.782
G1 X6.005 Y6.166 E51.09886
;WIDTH:0.51573
G1 F9517.58
G1 X5.893 Y6.15 E51.10331
;WIDTH:0.559999
G1 F8702.733
G1 X5.781 Y6.133 E51.10818
G1 X-6.133 Y-5.781 E51.83261
G1 X-5.753 Y-6.133 E51.85488
G1 X6.133 Y5.754 E52.57763
G1 X6.133 Y5.022 E52.6091
G1 X-5.022 Y-6.133 E53.28737
G1 X-4.291 Y-6.133 E53.3188
G1 X6.133 Y4.291 E53.95263
G1 X6.133 Y3.56 E53.98406
G1 X-3.56 Y-6.133 E54.57344
G1 X-2.828 Y-6.133 E54.60491
G1 X6.133 Y2.828 E55.14978
G1 X6.133 Y2.097 E55.18121
G1 X-2.097 Y-6.133 E55.68163
G1 X-1.366 Y-6.133 E55.71306
G1 X6.133 Y1.366 E56.16903
G1 X6.133 Y.635 E56.20046
G1 X-.635 Y-6.133 E56.61199
G1 X.097 Y-6.133 E56.64346
G1 X6.133 Y-.097 E57.01048
G1 X6.133 Y-.828 E57.04191
G1 X.828 Y-6.133 E57.36448
G1 X1.559 Y-6.133 E57.39591
G1 X6.133 Y-1.559 E57.67403
G1 X6.133 Y-2.29 E57.70546
G1 X2.29 Y-6.133 E57.93913
G1 X3.022 Y-6.133 E57.9706
G1 X6.133 Y-3.022 E58.15976
G1 X6.133 Y-3.753 E58.19119
G1 X3.753 Y-6.133 E58.3359
G1 X4.484 Y-6.133 E58.36733
G1 X6.133 Y-4.484 E58.4676
G1 X6.133 Y-5.215 E58.49903
G1 X5.215 Y-6.133 E58.55485
G1 X6.058 Y-6.154 E58.59111
;WIDTH:0.669166
G1 F7185.675
G1 X6.003 Y-6.099 E58.59516
G1 X6.023 Y-6.023 E58.59925
G1 X6.099 Y-6.003 E58.60334
G1 X6.154 Y-6.058 E58.60739
G1 X6.134 Y-6.134 E58.61148
; stop printing object Shape-Box id:0 copy 0
M106 S255
;LAYER_CHANGE
;Z:0.85
;HEIGHT:0.2
G1 Z.85 F12000
; printing object Shape-Box id:0 copy 0
M204 S4800
G1 X6.496 Y6.496
M204 S2000
;TYPE:Perimeter
;WIDTH:0.459999
G1 F4661
G1 X-6.496 Y6.496 E59.06205
G1 X-6.496 Y-6.496 E59.51262
G1 X6.496 Y-6.496 E59.96319
G1 X6.496 Y6.436 E60.41168
M204 S4000
M204 S4800
G1 X6.913 Y6.913 F12000
M204 S2000
G1 F4661
G1 X-6.913 Y6.913 E60.89117
G1 X-6.913 Y-6.913 E61.37066
G1 X6.913 Y-6.913 E61.85015
G1 X6.913 Y6.853 E62.32756
M204 S4000
M204 S4800
G1 X7.3 Y7.3 F12000
M204 S1000
;TYPE:External perimeter
;WIDTH:0.399999
G1 F4661
G1 X-7.3 Y7.3 E62.76105
G1 X-7.3 Y-7.3 E63.19454
G1 X7.3 Y-7.3 E63.62803
G1 X7.3 Y7.24 E64.05974
M204 S4000
G1 X6.914 Y7.196 F12000
M204 S4800
G1 X5.426 Y6.371
;TYPE:Internal infill
;WIDTH:0.46
G1 F4661
G1 X6.183 Y5.614 E64.09687
G1 X6.183 Y-.285 E64.30145
